X: 1
T: Battle of Cedar Creek
S: Jerry Correll
R: reel
Z: 2020 John Chambers <jc:trillian.mit.edu>
S: https://www.facebook.com/groups/Fiddletuneoftheday/
S: https://www.facebook.com/groups/Fiddletuneoftheday/photos/
M: C
L: 1/8
K: D
i dB |\
"D"ABde f2fa | fedB A2dB | ABde fed2 | "A"e3f e2dB | "D"ABde f2fe |
fedB A2dB | AdBd edB2 | "D"d3e d2 :: dc | "G"B4 d2ef | edBd A2AB- |
BGBc d2e2 | "D"ef2e fedA | "G"B4 d2de | ddBd A2dB | "D"AdBd "A"AdB2 | "D"d4- d2 :|
